X: 5
T: The Reverend Brother's Harmony.  
M: 6/8
L: 1/8
R: jig
K:EDOR %Transposed from ADOR
|:"Am"EFE G2B|AGA BdB|EFE G2B|"G"AGE EDB,|
"Am"EFE G2B|AGA BdB|e3 dBA|"G"GED "Am"E3:|
|:"Am"Bee efe|"G"dBc dBA|"Am"Bee efe|"G"dBA GEE|
"Am"Bee efe|"G"dBc d3|"Am"e3 dBA|"G"GED "Am"E3:||
%%text This sounds weirdly exciting if played occasionally!
%%text But it just sounds weird if you play it too much, so wait for a sign from Debby.
%%text It is just transposed up a fifth from the low-octave variant.

#include "LeftHeader.h"
%%textfont       Times-Roman 10.0
% ---------- set 84 ----------
$SmallRMargin
$SmallLMargin
%%scale .65
% The Great Cape Breton Set
%%textfont       Times-Bold 17.0
%%text Set 84 The Great Cape Breton Set!
%%textfont       Times-Roman 10.0
%%topspace -1cm
